X:1
T:The Redhaired Hag
M:6/8
L:1/8
Q:80
C:Traditional Irish
S:Jig
K:HP
f | \
{g}ecA{ag}aeA | \
{g}cde{a}gag | \
BG{d}G{g}dG{d}G |
{g}Bcd{g}d{e}d{c}d | \
{g}ecA{ag}aeA | \
{g}cde{g}fga |
def{a}gdB | \
{g}ecA{GAG}A2 :: \
e |
{ag}agf{g}ecA | \
{g}cde{g}fga | \
BGB{g}dBG |
{g}Bcd{g}d{e}d{c}d | \
{ag}agf{g}ecA | \
{g}cde{g}fga |
def{a}gdB | \
{g}ecA{GAG}A2 :|
